assets/img/braze_icons/wifi-off.svg

<svg fill="none" height="24" viewBox="0 0 24 24" width="24" xmlns="http://www.w3.org/2000/svg"><g fill="#801ed7"><path d="m3.70711 2.29289c-.39053-.39052-1.02369-.39052-1.41422 0-.39052.39053-.39052 1.02369 0 1.41422l1.76067 1.76066c-1.28559.68092-2.47298 1.5217-3.535798 2.49562-.40718.37313-.4347874 1.00569-.061662 1.41287.373125.40718 1.00569.43479 1.41287.06166 1.08939-.99827 2.32622-1.83743 3.67363-2.48111l2.28765 2.28766c-1.39415.51666-2.66559 1.28453-3.75932 2.24803-.41442.3651-.45443.997-.08936 1.4114s.99697.4544 1.41139.0894c1.1425-1.0065 2.51526-1.7554 4.02817-2.158l2.66517 2.6652c-.0287-.0003-.0575-.0005-.0864-.0005-1.6515 0-3.17182.5732-4.36905 1.5306-.43132.3449-.50135.9742-.15642 1.4055.34494.4314.97422.5014 1.40554.1565.05168-.0414.10419-.0817.15751-.121.02427-.0143.04815-.0298.07155-.0464.846-.6011 1.85807-.924 2.89587-.924.8145 0 1.6131.1989 2.3281.5751.2643.1398.5147.3026.7484.4858.0566.0443.1164.0816.1784.1119l5.0331 5.0331c.3905.3905 1.0237.3905 1.4142 0s.3905-1.0237 0-1.4142z"/><path d="m10.3098 5.59816c.5586-.06334 1.1228-.09547 1.69-.09547 3.6522 0 7.179 1.33248 9.9188 3.74751.4143.3652 1.0462.32539 1.4114-.08891.3652-.41431.3254-1.04622-.0889-1.41142-3.1051-2.73704-7.1021-4.24718-11.2413-4.24718-.6428 0-1.2822.03642-1.9153.1082-.54881.06222-.94324.55752-.88102 1.10629s.55752.9432 1.10632.88098z"/><path d="m15.6095 9.04529c-.5273-.16428-1.0879.12999-1.2522.65727-.1643.52724.13 1.08794.6573 1.25224 1.2439.3875 2.4095 1.0173 3.4255 1.8636.4244.3535 1.0549.296 1.4084-.1284.3534-.4243.296-1.0549-.1284-1.4084-1.2192-1.0155-2.6179-1.77126-4.1106-2.23631z"/><path d="m12 18.5c-.5523 0-1 .4477-1 1s.4477 1 1 1h.01c.5523 0 1-.4477 1-1s-.4477-1-1-1z"/></g></svg>

<svg width="24" height="24" viewBox="0 0 24 24" fill="none" xmlns="http://www.w3.org/2000/svg">
<path d="M3.70711 2.29289C3.31658 1.90237 2.68342 1.90237 2.29289 2.29289C1.90237 2.68342 1.90237 3.31658 2.29289 3.70711L4.05356 5.46777C2.76797 6.14869 1.58058 6.98947 0.517762 7.96339C0.110582 8.33652 0.0829746 8.96908 0.4561 9.37626C0.829225 9.78344 1.46179 9.81105 1.86897 9.43792C2.95836 8.43965 4.19519 7.60049 5.5426 6.95681L7.83025 9.24447C6.4361 9.76113 5.16466 10.529 4.07093 11.4925C3.65651 11.8576 3.6165 12.4895 3.98157 12.9039C4.34664 13.3183 4.97854 13.3583 5.39296 12.9933C6.53546 11.9868 7.90822 11.2379 9.42113 10.8353L12.0863 13.5005C12.0576 13.5002 12.0288 13.5 11.9999 13.5C10.3484 13.5 8.82808 14.0732 7.63085 15.0306C7.19953 15.3755 7.1295 16.0048 7.47443 16.4361C7.81937 16.8675 8.44865 16.9375 8.87997 16.5926C8.93165 16.5512 8.98416 16.5109 9.03748 16.4716C9.06175 16.4573 9.08563 16.4418 9.10903 16.4252C9.95503 15.8241 10.9671 15.5012 12.0049 15.5012C12.8194 15.5012 13.618 15.7001 14.333 16.0763C14.5973 16.2161 14.8477 16.3789 15.0814 16.5621C15.138 16.6064 15.1978 16.6437 15.2598 16.674L20.2929 21.7071C20.6834 22.0976 21.3166 22.0976 21.7071 21.7071C22.0976 21.3166 22.0976 20.6834 21.7071 20.2929L3.70711 2.29289Z" fill="#801ED7"/>
<path d="M10.3098 5.59816C10.8684 5.53482 11.4326 5.50269 11.9998 5.50269C15.652 5.50269 19.1788 6.83517 21.9186 9.2502C22.3329 9.6154 22.9648 9.57559 23.33 9.16129C23.6952 8.74698 23.6554 8.11507 23.2411 7.74987C20.136 5.01283 16.139 3.50269 11.9998 3.50269C11.357 3.50269 10.7176 3.53911 10.0845 3.61089C9.53569 3.67311 9.14126 4.16841 9.20348 4.71718C9.2657 5.26595 9.761 5.66038 10.3098 5.59816Z" fill="#801ED7"/>
<path d="M15.6095 9.04529C15.0822 8.88101 14.5216 9.17528 14.3573 9.70256C14.193 10.2298 14.4873 10.7905 15.0146 10.9548C16.2585 11.3423 17.4241 11.9721 18.4401 12.8184C18.8645 13.1719 19.495 13.1144 19.8485 12.69C20.2019 12.2657 20.1445 11.6351 19.7201 11.2816C18.5009 10.2661 17.1022 9.51034 15.6095 9.04529Z" fill="#801ED7"/>
<path d="M12 18.5C11.4477 18.5 11 18.9477 11 19.5C11 20.0523 11.4477 20.5 12 20.5H12.01C12.5623 20.5 13.01 20.0523 13.01 19.5C13.01 18.9477 12.5623 18.5 12.01 18.5H12Z" fill="#801ED7"/>
</svg>
